svg/white/xbp.svg

<?xml version="1.0" encoding="UTF-8"?>
<svg width="32px" height="32px" viewBox="0 0 32 32" version="1.1" xmlns="http://www.w3.org/2000/svg" xmlns:xlink="http://www.w3.org/1999/xlink">
    <!-- Generator: Sketch 53 (72520) - https://sketchapp.com -->
    <title>svg/white/xbp</title>
    <desc>Created with Sketch.</desc>
    <g id="white/xbp" stroke="none" stroke-width="1" fill="none" fill-rule="evenodd">
        <path d="M16,32 C7.163444,32 0,24.836556 0,16 C0,7.163444 7.163444,0 16,0 C24.836556,0 32,7.163444 32,16 C32,24.836556 24.836556,32 16,32 Z M16,28 C22.627417,28 28,22.627417 28,16 C28,9.372583 22.627417,4 16,4 C9.372583,4 4,9.372583 4,16 C4,22.627417 9.372583,28 16,28 Z M20.6134857,11.6512 C20.7909191,11.8873085 20.8810606,12.1776029 20.8685714,12.4726857 C20.8561632,12.7864926 20.7934209,13.0962682 20.6827429,13.3901714 C20.5842628,13.6648228 20.4433537,13.9223464 20.2651429,14.1533714 C20.0974315,14.3710675 19.906856,14.5701488 19.6966857,14.7472 C19.5047767,14.9103806 19.298182,15.055456 19.0795429,15.1805714 C18.9023348,15.2837061 18.7145018,15.3673918 18.5193143,15.4301714 C18.5228546,15.4312451 18.5262959,15.4326217 18.5296,15.4342857 L12.2614857,16.0514286 L15.4034286,7.41691429 C15.1915429,7.43405714 14.9789714,7.45531429 14.7732571,7.48548571 C10.6082286,8.08274286 7.39634286,11.6724571 7.39634286,16 C7.39581164,18.1614405 8.21189446,20.2432845 9.68114286,21.8285714 L8.8288,24.1744 C6.47033121,22.1126417 5.11742865,19.1326063 5.11771429,16 C5.11771429,10.1234286 9.80114286,5.32274286 15.6304,5.12731429 C15.7524571,5.1232 15.8752,5.11771429 15.9986286,5.11771429 C16.0788571,5.11771429 16.1577143,5.12388571 16.2372571,5.12388571 C17.0504168,5.14052622 17.8591383,5.24840175 18.6482286,5.44548571 L17.8630857,7.60205714 L16.6857143,10.8365714 L18.136,10.8365714 C18.8217143,10.8365714 19.3627429,10.9126857 19.7563429,11.0642286 C20.1499429,11.2157714 20.4372571,11.4112 20.6134857,11.6512 Z M17.9392,13.7563429 C18.0078191,13.591849 18.0376184,13.4137575 18.0262857,13.2358857 C18.0174542,13.1110001 17.9636078,12.9935612 17.8747429,12.9053714 C17.7837276,12.823332 17.673648,12.7653457 17.5545143,12.7366857 C17.4242936,12.7022333 17.2901293,12.6849441 17.1554286,12.6852571 L16.0253714,12.6852571 L15.2669714,14.7691429 L16.3970286,14.7691429 C16.7099696,14.7665837 17.0176637,14.688484 17.2939429,14.5414857 C17.5894857,14.3899429 17.8020571,14.128 17.9392,13.7563429 Z M19.2002286,5.5984 C23.6436571,6.96845714 26.8822857,11.1129143 26.8822857,16 C26.8822857,22.0006857 22.0006857,26.8822857 16,26.8822857 C14.586354,26.8829698 13.1862692,26.6066802 11.8788571,26.0690286 C11.7028571,25.9968 11.5286857,25.9202286 11.3563429,25.8393143 C10.6237516,25.4910479 9.93218307,25.0623536 9.2944,24.5611429 L10.1254857,22.2770286 L12.16,16.696 L18.4864,16.072 C18.6469046,16.1359337 18.8007785,16.215397 18.9458286,16.3092571 C19.1314772,16.4308602 19.2884732,16.5913659 19.4059429,16.7796571 C19.5367312,16.9940745 19.6193254,17.2343698 19.648,17.4838857 C19.6864,17.7574857 19.6384,18.0756571 19.5067429,18.4377143 C19.1501714,19.4155429 18.5510857,20.1270857 17.7094857,20.5723429 C16.8678857,21.0176 15.7915429,21.2402286 14.4804571,21.2402286 L13.0315429,21.2402286 L12.1401143,23.6848 C12.3101714,23.7705143 12.4822857,23.8528 12.6585143,23.9275429 C15.5990048,25.1692924 18.9853024,24.6809233 21.4550953,22.6589071 C23.9248881,20.6368909 25.0721453,17.4136445 24.4353238,14.2858842 C23.7985022,11.1581239 21.4822946,8.64004952 18.4185143,7.74468571 L19.2002286,5.5984 Z M14.56,17.0731429 L13.7145143,19.3894857 L15.0379429,19.3894857 C15.2045025,19.3882846 15.3708033,19.3761441 15.5357714,19.3531429 C15.7221973,19.3282049 15.9039936,19.2762301 16.0754286,19.1988571 C16.2609485,19.1134976 16.4288647,18.9941888 16.5705143,18.8470857 C16.7398162,18.665988 16.868203,18.4506068 16.9469714,18.2155429 C17.0352,17.9709714 17.0580571,17.7730286 17.0155429,17.6217143 C16.9800414,17.4816093 16.8940963,17.3595281 16.7741714,17.2788571 C16.6451562,17.1967573 16.5007092,17.1419187 16.3497143,17.1177143 C16.1949769,17.0891613 16.0380316,17.0742469 15.8806857,17.0731429 L14.56,17.0731429 Z" id="Combined-Shape" fill="#FFFFFF" fill-rule="nonzero"></path>
    </g>
</svg>

<svg width="32" height="32" viewBox="0 0 32 32" xmlns="http://www.w3.org/2000/svg"><path d="M16 32C7.163 32 0 24.837 0 16S7.163 0 16 0s16 7.163 16 16-7.163 16-16 16zm0-4c6.627 0 12-5.373 12-12S22.627 4 16 4 4 9.373 4 16s5.373 12 12 12zm4.613-16.349c.178.236.268.527.256.822a2.932 2.932 0 0 1-.186.917c-.099.275-.24.532-.418.763a4.084 4.084 0 0 1-1.186 1.027 2.846 2.846 0 0 1-.56.25.064.064 0 0 1 .01.004l-6.268.617 3.142-8.634a9.836 9.836 0 0 0-.63.068c-4.165.598-7.377 4.187-7.377 8.515 0 2.161.816 4.243 2.285 5.829l-.852 2.345A10.856 10.856 0 0 1 5.118 16c0-5.877 4.683-10.677 10.512-10.873.122-.004.245-.01.369-.01.08 0 .159.007.238.007.813.017 1.622.124 2.411.321l-.785 2.157-1.177 3.235h1.45c.686 0 1.227.076 1.62.227.394.152.681.347.857.587zm-2.674 2.105a1.16 1.16 0 0 0 .087-.52.517.517 0 0 0-.151-.33.735.735 0 0 0-.32-.17 1.546 1.546 0 0 0-.4-.05h-1.13l-.758 2.083h1.13c.313-.002.62-.08.897-.228.295-.151.508-.413.645-.785zM19.2 5.598c4.444 1.37 7.682 5.515 7.682 10.402 0 6-4.881 10.882-10.882 10.882a10.822 10.822 0 0 1-6.706-2.32l.831-2.285 2.035-5.581 6.326-.624c.16.064.315.143.46.237.185.122.342.282.46.47.13.215.213.455.242.705.038.273-.01.592-.141.954-.357.978-.956 1.69-1.798 2.134-.841.446-1.917.668-3.229.668h-1.448l-.892 2.445c.17.086.342.168.519.243a8.603 8.603 0 1 0 5.76-16.183l.781-2.147zm-4.64 11.475l-.845 2.316h1.323c.167 0 .333-.013.498-.036.186-.025.368-.077.54-.154.185-.086.353-.205.495-.352a1.73 1.73 0 0 0 .376-.631c.088-.245.111-.443.069-.594a.587.587 0 0 0-.242-.343 1.121 1.121 0 0 0-.424-.161 2.689 2.689 0 0 0-.47-.045h-1.32z" fill="#FFF"/></svg>
